X:1
T:Title
%%score { ( 1 4 ) | ( 2 3 ) }
L:1/8
M:4/4
K:Bb
V:1 treble nm="Grand Piano"
V:4 treble 
V:2 bass 
V:3 bass 
V:1
 z4 z2[Q:1/4=100] [B,D]>[CE] | [DF]2 (3[DF][DF][DF] [EG]>[DF] [B,D]>[DF] | [DB]2 [FB]>c d2 [Fc]2 | %3
 [GB]4 [FA]2 [EG]2 | [EG]2 [DF]4 F>G | A2 (3AAA [GB]>[^FA] [GB]>[=EG] | A2 A>B c2 [Fd]2 | %7
 [CFA]4 [B,=EG]2 [CEA]2 |[M:3/4] [B,=EG]4 [A,F]2 |[M:1/4] B>c |[M:4/4] d6 z2 | F6 z2 | %12
 A2 c2 G2 A2 | [EG]2 [DF]4 B>c | d6 z2 | F6 z2 | A2 e2 d2 c2 |[M:3/4] c4 [DB]2 |] %18
V:2
 z4 z2 [B,,F,]>[B,,F,] | [B,,B,]2 (3[B,,B,][B,,B,][B,,B,] [B,,B,]>[B,,B,] [B,,F,]>[B,,B,] | %2
 [B,,F,]2 [D,B,]>[K:treble][F,A,F] [B,F]2[K:bass] [D,B,]2 | [E,E]4 [E,E]2 [E,B,]2 | %4
 [B,,B,]2 [B,,B,]4 [F,A,C]>[F,B,C] | [F,CF]2 (3[F,CF][F,CF][F,CF] [C,C]>[C,C] [C,C]>[C,C] | %6
 z4 z2 .B,2 | C,4 C,2 C,2 |[M:3/4] C,4 F,2 |[M:1/4][K:treble] D>E | %10
[M:4/4] F6[K:bass][K:treble] z2 | D6[K:bass] z2 | [F,CE]2 [F,A,E]2 [F,A,E]2 [F,A,E]2 | %13
 [B,,B,]2 [B,,B,]4[K:treble] D>E | F6[K:bass][K:treble] z2 | D6[K:bass] z2 | %16
 [F,CF]2 [F,CF]2 [F,B,F]2 [F,A,E]2 |[M:3/4] [F,A,E]4 [B,,B,]2 |] %18
V:3
 x8 | x8 | x7/2[K:treble] x5/2[K:bass] x2 | x8 | x8 | x8 | %6
 [F,CF]2 [F,CF]>[F,G,F] [F,A,F]2 B,,-[B,,F,] | x8 |[M:3/4] x6 |[M:1/4][K:treble] x2 | %10
[M:4/4] z2[K:bass] B,,>B,, B,,2[K:treble] (3FED | z2[K:bass] (3B,,B,,B,, B,,2 D,2 | x8 | %13
 x6[K:treble] x2 | z2[K:bass] B,,>B,, B,,2[K:treble] (3FED | z2[K:bass] (3B,,B,,B,, B,,2 D,2 | x8 | %17
[M:3/4] x6 |] %18
V:4
 x8 | x8 | x8 | x8 | x8 | x8 | x8 | x8 |[M:3/4] x6 |[M:1/4] x2 |[M:4/4] z2 B,>B, B,2 (3dcB | %11
 z2 (3B,B,B, B,2 [B,FB]2 | x8 | x8 | z2 B,>B, B,2 (3dcB | z2 (3B,B,B, B,2 [B,FB]2 | x8 | %17
[M:3/4] x6 |] %18

